icons/juju.svg

<?xml version="1.0" encoding="UTF-8" standalone="no"?>
<svg width="256px" height="256px" viewBox="0 0 256 256" version="1.1" xmlns="http://www.w3.org/2000/svg" xmlns:xlink="http://www.w3.org/1999/xlink" preserveAspectRatio="xMidYMid">
	<g>
		<path d="M128,0.0001 C57.309,0.0001 0,57.3061 0,127.9981 C0,198.6901 57.309,256.0031 128,256.0031 C198.693,256.0031 256,198.6901 256,127.9981 C256,57.3061 198.693,0.0001 128,0.0001" fill="#DD4813"></path>
		<path d="M65.8791,207.1492 C64.7941,208.2342 63.3471,208.8332 61.8071,208.8332 C60.2621,208.8332 58.8131,208.2332 57.7241,207.1432 C56.6381,206.0572 56.0401,204.6112 56.0401,203.0702 C56.0401,201.5292 56.6381,200.0822 57.7251,198.9952 C58.8151,197.9062 60.2641,197.3062 61.8071,197.3062 C63.3471,197.3062 64.7931,197.9052 65.8791,198.9912 C66.9671,200.0792 67.5661,201.5282 67.5661,203.0702 C67.5661,204.6132 66.9671,206.0622 65.8791,207.1492 Z M90.9967,121.0697 C90.4167,119.2227 89.5827,117.7047 88.5157,116.5577 C87.4527,115.4097 86.1657,114.5517 84.6897,114.0057 C83.2057,113.4537 81.5237,113.1737 79.6927,113.1737 C77.8617,113.1737 76.1957,113.4527 74.7417,114.0037 C73.2897,114.5517 72.0157,115.4107 70.9517,116.5577 C69.8867,117.7017 69.0537,119.2207 68.4727,121.0697 C67.8887,122.9297 67.5927,125.2057 67.5927,127.8347 L67.5927,194.9157 L56.0127,194.9157 L56.0127,126.8087 C56.0127,123.3727 56.4787,120.1747 57.3967,117.3047 C58.3167,114.4227 59.7657,111.8777 61.7007,109.7407 C63.6387,107.5997 66.1117,105.9167 69.0527,104.7357 C71.9857,103.5567 75.5377,102.9587 79.6077,102.9587 C83.6757,102.9587 87.2537,103.5567 90.2447,104.7347 C93.2417,105.9157 95.7447,107.5997 97.6837,109.7407 C99.6167,111.8747 101.0807,114.4187 102.0307,117.3027 C102.9787,120.1737 103.4597,123.3727 103.4597,126.8087 L103.4597,136.0527 L91.8797,136.0527 L91.8797,127.8347 C91.8797,125.2147 91.5817,122.9377 90.9967,121.0697 Z M139.3259,168.0942 C139.3259,171.5372 138.8459,174.7362 137.8989,177.6032 C136.9509,180.4792 135.4879,183.0232 133.5509,185.1642 C131.6119,187.3042 129.1089,188.9882 126.1119,190.1682 C123.1189,191.3482 119.5389,191.9462 115.4739,191.9462 C111.4079,191.9462 107.8579,191.3472 104.9199,190.1672 C101.9809,188.9882 99.5079,187.3042 97.5689,185.1642 C95.6319,183.0232 94.1829,180.4782 93.2639,177.6002 C92.3459,174.7302 91.8819,171.5322 91.8819,168.0942 L91.8819,138.8272 L103.4609,138.8272 L103.4609,167.0702 C103.4609,169.7012 103.7579,171.9762 104.3399,173.8322 C104.9199,175.6832 105.7549,177.2012 106.8199,178.3482 C107.8839,179.4962 109.1609,180.3552 110.6089,180.9002 C112.0619,181.4512 113.7269,181.7312 115.5599,181.7312 C117.3909,181.7312 119.0729,181.4512 120.5559,180.9002 C122.0309,180.3542 123.3179,179.4942 124.3829,178.3482 C125.4489,177.2002 126.2859,175.6812 126.8639,173.8332 C127.4479,171.9672 127.7459,169.6922 127.7459,167.0702 L127.7459,138.8272 L139.3259,138.8272 L139.3259,168.0942 Z M127.7741,130.3759 C127.7741,127.1999 130.3561,124.6149 133.5321,124.6149 C136.7111,124.6149 139.3001,127.1999 139.3001,130.3759 C139.3001,133.5549 136.7111,136.1419 133.5321,136.1419 C130.3561,136.1419 127.7741,133.5549 127.7741,130.3759 Z M162.7301,48.6727 C162.1501,46.8257 161.3141,45.3077 160.2471,44.1587 C159.1821,43.0107 157.8941,42.1527 156.4191,41.6077 C154.9381,41.0557 153.2561,40.7767 151.4231,40.7767 C149.5931,40.7767 147.9271,41.0557 146.4741,41.6057 C145.0231,42.1537 143.7481,43.0127 142.6821,44.1587 C141.6191,45.3067 140.7851,46.8247 140.2051,48.6727 C139.6221,50.5317 139.3261,52.8077 139.3261,55.4377 L139.3261,122.5187 L127.7461,122.5187 L127.7461,54.4127 C127.7461,50.9777 128.2101,47.7797 129.1291,44.9067 C130.0501,42.0247 131.4981,39.4797 133.4351,37.3427 C135.3701,35.2037 137.8441,33.5197 140.7871,32.3397 C143.7251,31.1597 147.2741,30.5607 151.3381,30.5607 C155.4041,30.5607 158.9841,31.1587 161.9771,32.3387 C164.9771,33.5197 167.4781,35.2037 169.4141,37.3427 C171.3511,39.4787 172.8141,42.0227 173.7641,44.9037 C174.7101,47.7777 175.1911,50.9777 175.1911,54.4127 L175.1911,63.6557 L163.6091,63.6557 L163.6091,55.4377 C163.6091,52.8127 163.3131,50.5367 162.7301,48.6727 Z M211.0555,95.6975 C211.0555,99.1385 210.5755,102.3375 209.6295,105.2055 C208.6805,108.0845 207.2185,110.6285 205.2835,112.7665 C203.3435,114.9075 200.8405,116.5905 197.8455,117.7715 C194.8485,118.9505 191.2695,119.5485 187.2075,119.5485 C183.1395,119.5485 179.5875,118.9495 176.6515,117.7695 C173.7105,116.5905 171.2395,114.9075 169.3005,112.7665 C167.3645,110.6285 165.9165,108.0835 164.9945,105.2025 C164.0775,102.3275 163.6115,99.1295 163.6115,95.6975 L163.6115,66.4295 L175.1915,66.4295 L175.1915,94.6735 C175.1915,97.2995 175.4875,99.5745 176.0715,101.4365 C176.6515,103.2845 177.4845,104.8025 178.5535,105.9505 C179.6175,107.0995 180.8925,107.9585 182.3395,108.5035 C183.7955,109.0545 185.4595,109.3335 187.2895,109.3335 C189.1245,109.3335 190.8045,109.0535 192.2865,108.5025 C193.7625,107.9575 195.0495,107.0995 196.1165,105.9505 C197.1805,104.8045 198.0155,103.2865 198.5955,101.4365 C199.1795,99.5745 199.4765,97.2995 199.4765,94.6735 L199.4765,66.4305 L211.0555,66.4305 L211.0555,95.6975 Z" fill="#FFFFFF"></path>
	</g>
</svg>

<svg xmlns="http://www.w3.org/2000/svg" viewBox="0 0 256 256.003">
  <path fill="#dd4813" d="M128 0C57.309 0 0 57.306 0 127.998c0 70.692 57.309 128.005 128 128.005 70.693 0 128-57.313 128-128.005S198.693 0 128 0"/>
  <path fill="#fff" d="M65.88 207.15a5.722 5.722 0 0 1-4.073 1.683 5.73 5.73 0 0 1-4.083-1.69 5.72 5.72 0 0 1-1.684-4.073c0-1.54.598-2.988 1.685-4.075a5.737 5.737 0 0 1 4.082-1.689 5.72 5.72 0 0 1 4.072 1.685 5.73 5.73 0 0 1 1.687 4.08 5.727 5.727 0 0 1-1.687 4.078zm25.117-86.08c-.58-1.847-1.414-3.365-2.481-4.512a9.795 9.795 0 0 0-3.826-2.552c-1.484-.552-3.166-.832-4.997-.832s-3.497.279-4.951.83a9.89 9.89 0 0 0-3.79 2.554c-1.065 1.144-1.898 2.663-2.48 4.512-.583 1.86-.88 4.136-.88 6.765v67.08h-11.58V126.81c0-3.436.467-6.634 1.385-9.504.92-2.882 2.369-5.427 4.304-7.564 1.938-2.141 4.41-3.824 7.352-5.005 2.933-1.18 6.485-1.777 10.555-1.777 4.068 0 7.646.598 10.637 1.776 2.997 1.18 5.5 2.865 7.439 5.006 1.933 2.134 3.397 4.678 4.347 7.562.948 2.87 1.429 6.07 1.429 9.506v9.244H91.88v-8.218c0-2.62-.298-4.897-.883-6.765zm48.329 47.024c0 3.443-.48 6.642-1.427 9.51-.948 2.875-2.411 5.42-4.348 7.56-1.94 2.14-4.442 3.824-7.44 5.004-2.992 1.18-6.572 1.778-10.637 1.778-4.066 0-7.616-.599-10.554-1.779-2.94-1.179-5.412-2.863-7.351-5.003-1.937-2.14-3.386-4.686-4.305-7.564-.918-2.87-1.382-6.068-1.382-9.506v-29.267h11.579v28.243c0 2.631.297 4.906.879 6.762.58 1.851 1.415 3.37 2.48 4.516a9.868 9.868 0 0 0 3.789 2.552c1.453.551 3.118.831 4.95.831 1.832 0 3.514-.28 4.997-.83a9.842 9.842 0 0 0 3.827-2.553c1.066-1.148 1.903-2.667 2.48-4.515.585-1.866.883-4.14.883-6.763v-28.243h11.58zm-11.552-37.718a5.766 5.766 0 0 1 5.758-5.761c3.18 0 5.768 2.585 5.768 5.76a5.775 5.775 0 0 1-5.768 5.767c-3.176 0-5.758-2.587-5.758-5.766zm34.956-81.703c-.58-1.847-1.416-3.365-2.483-4.514a9.81 9.81 0 0 0-3.828-2.551c-1.48-.552-3.163-.831-4.996-.831-1.83 0-3.496.279-4.949.829a9.93 9.93 0 0 0-3.792 2.553c-1.063 1.148-1.897 2.666-2.477 4.514-.583 1.859-.879 4.135-.879 6.765v67.08h-11.58V54.414c0-3.435.464-6.633 1.383-9.506.921-2.882 2.37-5.427 4.306-7.564 1.935-2.14 4.41-3.823 7.352-5.003 2.938-1.18 6.487-1.78 10.551-1.78 4.066 0 7.646.599 10.64 1.779 3 1.18 5.5 2.865 7.436 5.004 1.937 2.136 3.4 4.68 4.35 7.56.946 2.875 1.427 6.075 1.427 9.51v9.243H163.61v-8.218c0-2.625-.296-4.901-.879-6.765zm48.326 47.024c0 3.441-.48 6.64-1.427 9.508-.948 2.88-2.41 5.423-4.345 7.561-1.94 2.141-4.443 3.824-7.438 5.005-2.997 1.18-6.576 1.777-10.638 1.777-4.068 0-7.62-.599-10.556-1.779-2.941-1.179-5.412-2.862-7.351-5.003-1.936-2.138-3.384-4.683-4.306-7.564-.918-2.875-1.384-6.073-1.384-9.505V66.43h11.58v28.244c0 2.626.296 4.901.88 6.763.58 1.848 1.413 3.366 2.482 4.514a9.856 9.856 0 0 0 3.786 2.553c1.456.551 3.12.83 4.95.83 1.835 0 3.515-.28 4.997-.83a9.816 9.816 0 0 0 3.83-2.553c1.064-1.146 1.9-2.664 2.48-4.514.584-1.862.88-4.137.88-6.763V66.43h11.58z"/>
</svg>
